X:2055
T:Köttpolska
S:[[Grupper/Hoven Droven]]
R:Polska
M:3/4
L:1/8
K:Dm
|: d>^c A>c e>g | f>e =c>e g2 | (3gfg a>f d>f | (3ed^c A2 (3A=Bc | 
d>^c A>c e>g | f>e =c>e g2 | (3gfg a>f d>f | (3ed^c d4 :|
|: A>a a>a a>a | a/b/a/g/ a2 f2 | e/f/g/a/ =bz/a/ g>f | (3efe d<^c A2 |
 A>a a>a a>a | a/b/a/g/ a2 f2 | e/f/g/a/ =bz/a/ g>f | e<f d4 :|
(:musicend:)

Som jag har lärt mig den, kanske inte exakt som Hoven Droven spelar, men nära nog. :) Punkteringen ska spelas med triolkänsla.
(:music:)
